img/logos/blocs.svg

<?xml version="1.0" encoding="UTF-8" standalone="no"?>
<svg width="256px" height="283px" viewBox="0 0 256 283" version="1.1" xmlns="http://www.w3.org/2000/svg" xmlns:xlink="http://www.w3.org/1999/xlink" preserveAspectRatio="xMinYMin meet">
	<g>
		<path d="M128.337681,0.0776964981 C121.636856,0.0776964981 114.935035,1.81092607 108.93049,5.27838132 L20.2439222,56.4813696 C8.23383658,63.415284 0.835735409,76.2292296 0.835735409,90.0960623 L0.835735409,192.503035 C0.835735409,206.370864 8.23383658,219.184809 20.2439222,226.117728 L108.93049,277.321712 C114.935035,280.788171 121.636856,282.521401 128.337681,282.521401 C135.039502,282.521401 141.740327,280.788171 147.745868,277.321712 L236.432436,226.117728 C248.442521,219.184809 255.840623,206.370864 255.840623,192.503035 L255.840623,90.0960623 C255.840623,76.2292296 248.442521,63.415284 236.432436,56.4813696 L147.745868,5.27838132 C141.740327,1.81092607 135.039502,0.0776964981 128.337681,0.0776964981" fill="#FFFFFF"></path>
		<path d="M236.432436,56.4823658 L147.745868,5.27838132 C135.735782,-1.65553307 120.940576,-1.65553307 108.93049,5.27838132 L20.2439222,56.4823658 C8.23383658,63.415284 0.835735409,76.2292296 0.835735409,90.0960623 L0.835735409,192.503035 C0.835735409,206.370864 8.23383658,219.184809 20.2439222,226.117728 L108.93049,277.321712 C120.940576,284.255626 135.735782,284.255626 147.745868,277.321712 L236.432436,226.117728 C248.442521,219.184809 255.840623,206.370864 255.840623,192.503035 L255.840623,90.0960623 C255.840623,76.2292296 248.442521,63.415284 236.432436,56.4823658 L236.432436,56.4823658 Z M243.642272,187.605167 C243.642272,200.145183 236.952405,211.732918 226.091829,218.003424 L145.889121,264.308545 C135.028545,270.579051 121.647813,270.579051 110.787237,264.308545 L30.5845292,218.003424 C19.7239533,211.732918 13.0340856,200.145183 13.0340856,187.605167 L13.0340856,94.9949261 C13.0340856,82.4539144 19.7239533,70.866179 30.5845292,64.5966693 L110.787237,18.2915486 C121.647813,12.0210428 135.028545,12.0210428 145.889121,18.2915486 L226.091829,64.5966693 C236.952405,70.866179 243.642272,82.4539144 243.642272,94.9949261 L243.642272,187.605167 L243.642272,187.605167 Z" fill="#298AEC"></path>
		<path d="M73.6801868,109.915642 L186.665837,109.915642 L186.665837,119.820949 L73.6801868,119.820949 L73.6801868,109.915642 Z" fill="#44546C"></path>
		<path d="M73.6801868,143.223533 L186.665837,143.223533 L186.665837,153.12884 L73.6801868,153.12884 L73.6801868,143.223533 Z" fill="#44546C"></path>
		<path d="M73.6801868,176.422848 L186.665837,176.422848 L186.665837,186.328156 L73.6801868,186.328156 L73.6801868,176.422848 Z" fill="#44546C"></path>
	</g>
</svg>

<svg width="256" height="283" viewBox="0 0 256 283" xmlns="http://www.w3.org/2000/svg" preserveAspectRatio="xMinYMin meet"><path d="M128.338.078c-6.7 0-13.403 1.733-19.408 5.2L20.244 56.48C8.234 63.416.836 76.23.836 90.097v102.407c0 13.868 7.398 26.682 19.408 33.615l88.686 51.204c6.005 3.466 12.707 5.2 19.408 5.2 6.702 0 13.402-1.734 19.408-5.2l88.686-51.204c12.01-6.933 19.41-19.747 19.41-33.615V90.096c0-13.867-7.4-26.68-19.41-33.615L147.746 5.28c-6.006-3.467-12.706-5.2-19.408-5.2" fill="#FFF"/><path d="M236.432 56.482L147.746 5.278c-12.01-6.934-26.805-6.934-38.816 0L20.244 56.482C8.234 63.415.836 76.23.836 90.096v102.407c0 13.868 7.398 26.682 19.408 33.615l88.686 51.204c12.01 6.934 26.806 6.934 38.816 0l88.686-51.204c12.01-6.933 19.41-19.747 19.41-33.615V90.096c0-13.867-7.4-26.68-19.41-33.614zm7.21 131.123c0 12.54-6.69 24.128-17.55 30.398L145.89 264.31c-10.86 6.27-24.242 6.27-35.103 0l-80.202-46.307c-10.86-6.27-17.55-17.858-17.55-30.398v-92.61c0-12.54 6.69-24.13 17.55-30.398l80.202-46.305c10.86-6.27 24.242-6.27 35.102 0l80.202 46.305c10.86 6.27 17.55 17.857 17.55 30.398v92.61z" fill="#298AEC"/><path d="M73.68 109.916h112.986v9.905H73.68v-9.904zM73.68 143.224h112.986v9.905H73.68v-9.906zM73.68 176.423h112.986v9.905H73.68v-9.905z" fill="#44546C"/></svg>
